X:22
T:Polska efter Lovisa {\AA}strand
R:sl-polska
H:Hon hade den efter sin mormor, Helena M{\aa}nsson, Misterfall, Kisa
A:\"Osterg\"otland
B:SvL \"Ogl 471, efter Lovisa {\AA}strand, Falla, Horn
Z:id:hn-sp-22
M:3/4
L:1/16
K:D
d3e f2d2 A4 | F2FG E2EF D4 | D3D F2F2 A2A2 | d2cd e2c2 A4 |
d3e f2d2 A4 | F2FG E2EF D4 | D3D F2F2 A2A2 | d2cd e4 d4 :|
|: D2FE D2FE D2EF | G2BA G2BA G2B2 | A3c d2e2 f2d2 | d2cd e2dc d2A2 |
D2FE D2FE D2EF | G2BA G2BA G2B2 | A3c d2e2 f2d2 | d2cd e2ec d4 :|
